X: 17614
T: Hogties
R: reel
M: 4/4
K: Amixolydian
e2d2 A2gf|edef g2fg|e2d2 A2ag|edeg BAA/A/A|
edeg A2gf|edef g2e/f/g|a2ge degd|gedg BAA/A/A:|
aeee a2ge|dBde|g2eg|a2e/e/e a2ge|d2eg BAA/A/A|
bee/e/e a2ge|dadf g2e/f/g|aege d2fg|f/g/ded BAA/A/A:|
eAA/A/A eAg2|eAef gAfg|eAA/A/A eA/A/ag|edeg BAA/A/A|
eAAA eAg2|eA/A/ef g2fg|a2ge degd|gdeg BAA/A/A:|

